X:12
M:C
L:1/8
Q:1/4=140
K:D
(FG) | A>FA>d f>ed>c | B>GB>e g>fe>d | c>Ac>e a>gf>e | f>cd>B A2 (FG) |!
|: (fg) | (3aaa (fd) A>df>d | (3ggg (ec) A>ce>c | f>dg>e a>fb>g | e>cd>B A2 (fg) |!
(3aaa (fd) A>df>d | (3ggg (ec) A2 (ag) | f>dA>F E>ge>c | d2d2d2 :|

